;FLAVOR:Marlin
;TIME:14255
;Filament used: 10.765m
;Layer height: 0.2
;MINX:59
;MINY:50.273
;MINZ:0.2
;MAXX:200.999
;MAXY:209.731
;MAXZ:5.4
;Generated with Cura_SteamEngine 4.13.0
M140 S50
M105
M190 S50
M104 S220
M105
M109 S220
M82 ;absolute extrusion mode

G28 ;Home

G92 E0 ;Reset Extruder
G1 Z2.0 F3000 ;Move Z Axis up
G1 X10.1 Y20 Z0.28 F5000.0 ;Move to start position
G1 X10.1 Y200.0 Z0.28 F1500.0 E15 ;Draw the first line
G1 X10.4 Y200.0 Z0.28 F5000.0 ;Move to side a little
G1 X10.4 Y20 Z0.28 F1500.0 E30 ;Draw the second line
G92 E0 ;Reset Extruder
G1 Z2.0 F3000 ;Move Z Axis up

G92 E0
G92 E0
G1 F1500 E-10
;LAYER_COUNT:27
;LAYER:0
M107
G0 F6000 X92.211 Y68.38 Z0.2
;TYPE:SKIRT
G1 F1500 E0
G1 F1200 X92.663 Y67.802 E0.0244
G1 X93.067 Y67.314 E0.04548
G1 X93.271 Y67.082 E0.05575
G1 X93.601 Y66.719 E0.07207
G1 X95.414 Y64.778 E0.16041
G1 X95.995 Y64.173 E0.18831
G1 X96.423 Y63.751 E0.2083
G1 X96.645 Y63.544 E0.21839
G1 X96.905 Y63.309 E0.23005
G1 X99.002 Y61.475 E0.32271
G1 X99.695 Y60.886 E0.35296
G1 X100.172 Y60.503 E0.3733
G1 X100.382 Y60.344 E0.38206
G1 X100.659 Y60.141 E0.39349
G1 X103.127 Y58.392 E0.49409
G1 X103.682 Y58.011 E0.51649
G1 X104.203 Y57.675 E0.5371
G1 X104.447 Y57.527 E0.5466
G1 X104.733 Y57.359 E0.55763
G1 X107.336 Y55.887 E0.65709
G1 X107.948 Y55.552 E0.68029
G1 X108.502 Y55.269 E0.70099
G1 X108.752 Y55.15 E0.71019
G1 X109.064 Y55.007 E0.72161
G1 X111.752 Y53.83 E0.81921
G1 X112.457 Y53.532 E0.84467
G1 X113.121 Y53.276 E0.86833
G1 X113.454 Y53.16 E0.88006
G1 X113.705 Y53.076 E0.88887
G1 X116.47 Y52.188 E0.98546
G1 X117.144 Y51.982 E1.0089
G1 X117.769 Y51.811 E1.03045
G1 X118.124 Y51.725 E1.0426
G1 X118.43 Y51.656 E1.05303
G1 X121.226 Y51.063 E1.1481
G1 X121.937 Y50.922 E1.1722
G1 X122.568 Y50.816 E1.19348
G1 X122.864 Y50.775 E1.20342
G1 X123.187 Y50.735 E1.21425
G1 X125.982 Y50.432 E1.30776
G1 X126.835 Y50.351 E1.33625
G1 X127.467 Y50.309 E1.35732
G1 X127.741 Y50.299 E1.36644
G1 X128.252 Y50.289 E1.38344
G1 X131.043 Y50.273 E1.47627
G1 X131.797 Y50.28 E1.50135
G1 X132.394 Y50.302 E1.52122
G1 X132.661 Y50.319 E1.53012
G1 X133.099 Y50.354 E1.54473
G1 X135.996 Y50.634 E1.64154
G1 X136.701 Y50.712 E1.66513
G1 X137.322 Y50.798 E1.68598
G1 X137.776 Y50.877 E1.70131
G1 X138.105 Y50.941 E1.71245
G1 X140.849 Y51.492 E1.80554
G1 X141.545 Y51.642 E1.82922
G1 X142.17 Y51.796 E1.85063
G1 X142.487 Y51.884 E1.86157
G1 X142.784 Y51.971 E1.87187
G1 X145.646 Y52.854 E1.97148
G1 X146.284 Y53.062 E1.9938
G1 X146.838 Y53.259 E2.01336
G1 X147.071 Y53.349 E2.02167
G1 X147.401 Y53.483 E2.03351
G1 X150.163 Y54.655 E2.13331
G1 X150.812 Y54.941 E2.1569
G1 X151.362 Y55.202 E2.17714
G1 X151.598 Y55.322 E2.18595
G1 X151.908 Y55.486 E2.19761
G1 X154.575 Y56.952 E2.29884
G1 X155.172 Y57.293 E2.3217
G1 X155.69 Y57.609 E2.34189
G1 X156.1 Y57.877 E2.35818
G1 X156.377 Y58.065 E2.36931
G1 X158.634 Y59.624 E2.46055
G1 X159.228 Y60.047 E2.4848
G1 X159.723 Y60.421 E2.50544
G1 X160.105 Y60.73 E2.52178
G1 X160.303 Y60.896 E2.53037
G1 X162.437 Y62.717 E2.62368
G1 X163.013 Y63.223 E2.64918
G1 X163.469 Y63.648 E2.66991
G1 X163.66 Y63.836 E2.67882
G1 X163.89 Y64.068 E2.68969
G1 X165.945 Y66.216 E2.78856
G1 X166.433 Y66.74 E2.81238
G1 X166.884 Y67.256 E2.83517
G1 X167.054 Y67.463 E2.84408
G1 X167.23 Y67.683 E2.85345
G1 X169.066 Y70.041 E2.95285
G1 X169.482 Y70.591 E2.97579
G1 X169.844 Y71.098 E2.99651
G1 X170.054 Y71.411 E3.00904
G1 X170.242 Y71.702 E3.02056
G1 X171.775 Y74.153 E3.11672
G1 X172.15 Y74.771 E3.14076
G1 X172.467 Y75.328 E3.16208
G1 X172.67 Y75.715 E3.17661
G1 X172.816 Y76.003 E3.18735
G1 X174.009 Y78.426 E3.27718
G1 X174.365 Y79.175 E3.30476
G1 X174.594 Y79.691 E3.32354
G1 X174.708 Y79.967 E3.33347
G1 X174.851 Y80.33 E3.34645
G1 X175.831 Y82.964 E3.43992
G1 X176.129 Y83.804 E3.46957
G1 X176.224 Y84.082 E3.47934
G1 X176.474 Y84.858 E3.50645
G1 X176.847 Y86.068 E3.54857
G1 X177.648 Y88.425 E3.63136
G1 X178.537 Y90.821 E3.71636
G1 X179.473 Y93.135 E3.79939
G1 X180.487 Y95.455 E3.8836
G1 X181.559 Y97.73 E3.96724
G1 X182.686 Y99.954 E4.05017
G1 X183.895 Y102.185 E4.13457
G1 X185.168 Y104.378 E4.21891
G1 X186.471 Y106.488 E4.30139
G1 X187.864 Y108.606 E4.3857
G1 X189.305 Y110.667 E4.46935
G1 X190.791 Y112.669 E4.55227
G1 X192.363 Y114.667 E4.63683
G1 X194.015 Y116.647 E4.72259
G1 X194.87 Y117.629 E4.7659
G1 X197.837 Y120.989 E4.91499
G1 X198.326 Y121.557 E4.93992
G1 X198.907 Y122.293 E4.9711
G1 X199.424 Y123.076 E5.00231
G1 X199.871 Y123.901 E5.03352
G1 X200.247 Y124.76 E5.06471
G1 X200.548 Y125.648 E5.09589
G1 X200.773 Y126.559 E5.1271
G1 X200.919 Y127.485 E5.15828
G1 X200.985 Y128.402 E5.18886
G1 X200.994 Y128.7 E5.19878
G1 X200.999 Y129.032 E5.20982
G1 X200.999 Y198.131 E7.50806
G1 X200.99 Y198.858 E7.53225
G1 X200.939 Y199.795 E7.56346
G1 X200.807 Y200.723 E7.59463
G1 X200.598 Y201.637 E7.62582
G1 X200.311 Y202.53 E7.65701
G1 X199.949 Y203.396 E7.68823
G1 X199.515 Y204.227 E7.71941
G1 X199.011 Y205.018 E7.75061
G1 X198.442 Y205.763 E7.78179
G1 X197.811 Y206.458 E7.81301
G1 X197.124 Y207.096 E7.84419
G1 X196.385 Y207.673 E7.87538
G1 X195.599 Y208.185 E7.90658
G1 X194.773 Y208.628 E7.93775
G1 X193.911 Y209 E7.96898
G1 X193.022 Y209.296 E8.00014
G1 X192.11 Y209.516 E8.03135
G1 X191.183 Y209.657 E8.06253
G1 X190.299 Y209.718 E8.092
G1 X189.978 Y209.727 E8.10269
G1 X189.67 Y209.731 E8.11293
G1 X70.565 Y209.73 E12.07438
G1 X69.867 Y209.721 E12.0976
G1 X68.931 Y209.669 E12.12878
G1 X68.002 Y209.537 E12.15999
G1 X67.088 Y209.327 E12.19118
G1 X66.195 Y209.04 E12.22237
G1 X65.33 Y208.677 E12.25358
G1 X64.499 Y208.243 E12.28476
G1 X63.708 Y207.739 E12.31595
G1 X62.963 Y207.169 E12.34715
G1 X62.269 Y206.538 E12.37835
G1 X61.632 Y205.851 E12.40951
G1 X61.055 Y205.111 E12.44072
G1 X60.543 Y204.325 E12.47192
G1 X60.1 Y203.498 E12.50312
G1 X59.729 Y202.637 E12.53431
G1 X59.433 Y201.747 E12.5655
G1 X59.214 Y200.835 E12.5967
G1 X59.073 Y199.908 E12.62788
G1 X59.013 Y199.019 E12.65752
G1 X59.004 Y198.686 E12.6686
G1 X59 Y198.389 E12.67848
G1 X59.001 Y129.282 E14.97699
G1 X59.011 Y128.579 E15.00037
G1 X59.064 Y127.642 E15.03158
G1 X59.197 Y126.714 E15.06277
G1 X59.409 Y125.8 E15.09397
G1 X59.697 Y124.908 E15.12515
G1 X60.061 Y124.043 E15.15636
G1 X60.497 Y123.213 E15.18755
G1 X61.002 Y122.422 E15.21876
G1 X61.532 Y121.726 E15.24786
G1 X61.699 Y121.524 E15.25657
G1 X62.003 Y121.169 E15.27212
G1 X65.13 Y117.629 E15.42922
G1 X66.811 Y115.67 E15.51507
G1 X68.4 Y113.71 E15.59899
G1 X69.93 Y111.71 E15.68275
G1 X71.41 Y109.657 E15.76692
G1 X72.811 Y107.592 E15.84992
G1 X74.174 Y105.454 E15.93425
G1 X75.449 Y103.327 E16.01673
G1 X76.713 Y101.074 E16.10266
G1 X77.856 Y98.897 E16.18444
G1 X78.971 Y96.615 E16.26891
G1 X80.017 Y94.314 E16.35298
G1 X80.983 Y92.019 E16.4358
G1 X81.911 Y89.629 E16.52107
G1 X82.743 Y87.283 E16.60386
G1 X83.733 Y84.235 E16.71045
G1 X83.838 Y83.927 E16.72127
G1 X84.85 Y81.101 E16.82111
G1 X85.084 Y80.474 E16.84337
G1 X85.33 Y79.871 E16.86503
G1 X85.464 Y79.568 E16.87605
G1 X85.598 Y79.277 E16.88671
G1 X86.859 Y76.638 E16.98399
G1 X87.185 Y75.98 E17.00841
G1 X87.511 Y75.371 E17.03139
G1 X87.7 Y75.043 E17.04398
G1 X87.837 Y74.812 E17.05291
G1 X89.323 Y72.375 E17.14784
G1 X89.714 Y71.753 E17.17228
G1 X90.06 Y71.236 E17.19297
G1 X90.217 Y71.015 E17.20199
G1 X90.421 Y70.737 E17.21346
G1 X91.728 Y69.017 E17.28531
G0 F1080 X92.211 Y68.38
G0 F6000 X92.526 Y68.626
G1 F1200 X92.978 Y68.048 E17.30971
G1 X93.368 Y67.578 E17.33002
G1 X93.713 Y67.189 E17.34732
G1 X93.894 Y66.992 E17.35622
G1 X95.811 Y64.941 E17.44959
G1 X96.283 Y64.45 E17.47224
G1 X96.696 Y64.043 E17.49153
G1 X96.918 Y63.836 E17.50162
G1 X97.169 Y63.61 E17.51286
G1 X99.386 Y61.673 E17.61077
G1 X99.954 Y61.191 E17.63555
G1 X100.413 Y60.822 E17.65514
G1 X100.623 Y60.663 E17.6639
G1 X100.89 Y60.467 E17.67492
G1 X103.221 Y58.814 E17.76996
G1 X103.909 Y58.341 E17.79773
G1 X104.411 Y58.017 E17.8176
G1 X104.655 Y57.869 E17.82709
G1 X104.93 Y57.708 E17.83769
G1 X107.528 Y56.238 E17.93698
G1 X108.14 Y55.903 E17.96018
G1 X108.674 Y55.63 E17.98013
G1 X108.924 Y55.511 E17.98934
G1 X109.224 Y55.374 E18.00031
G1 X111.908 Y54.198 E18.09777
G1 X112.613 Y53.9 E18.12323
G1 X113.253 Y53.654 E18.14603
G1 X113.586 Y53.538 E18.15776
G1 X113.828 Y53.457 E18.16625
G1 X116.587 Y52.571 E18.26263
G1 X117.261 Y52.365 E18.28607
G1 X117.863 Y52.2 E18.30683
G1 X118.218 Y52.114 E18.31898
G1 X118.513 Y52.047 E18.32904
G1 X121.304 Y51.455 E18.42394
G1 X122.015 Y51.314 E18.44804
G1 X122.623 Y51.212 E18.46855
G1 X122.919 Y51.171 E18.47849
G1 X123.231 Y51.133 E18.48894
G1 X126.173 Y50.815 E18.58736
G1 X126.873 Y50.749 E18.61075
G1 X127.481 Y50.709 E18.63101
G1 X127.755 Y50.699 E18.64013
G1 X128.254 Y50.689 E18.65673
G1 X131.039 Y50.673 E18.74936
G1 X131.793 Y50.68 E18.77444
G1 X132.369 Y50.701 E18.79361
G1 X132.636 Y50.718 E18.80251
G1 X133.064 Y50.753 E18.8168
G1 X135.952 Y51.031 E18.9133
G1 X136.657 Y51.109 E18.93689
G1 X137.256 Y51.193 E18.957
G1 X137.701 Y51.27 E18.97203
G1 X138.026 Y51.333 E18.98304
G1 X140.765 Y51.883 E19.07595
G1 X141.461 Y52.033 E19.09963
G1 X142.063 Y52.181 E19.12025
G1 X142.38 Y52.269 E19.1312
G1 X142.666 Y52.353 E19.14111
G1 X145.522 Y53.234 E19.24052
G1 X146.16 Y53.442 E19.26284
G1 X146.693 Y53.632 E19.28166
G1 X146.926 Y53.722 E19.28996
G1 X147.245 Y53.851 E19.30141
G1 X150.002 Y55.021 E19.40102
G1 X150.651 Y55.307 E19.42461
G1 X151.18 Y55.558 E19.44409
G1 X151.416 Y55.678 E19.45289
G1 X151.715 Y55.836 E19.46414
G1 X154.222 Y57.213 E19.55927
G1 X154.973 Y57.641 E19.58802
G1 X155.473 Y57.944 E19.60747
G1 X155.691 Y58.085 E19.6161
G1 X156.071 Y58.34 E19.63132
G1 X158.274 Y59.86 E19.72035
G1 X158.996 Y60.373 E19.7498
G1 X159.473 Y60.734 E19.7697
G1 X159.849 Y61.037 E19.78576
G1 X160.044 Y61.2 E19.79421
G1 X162.173 Y63.017 E19.88731
G1 X162.749 Y63.523 E19.91281
G1 X163.189 Y63.933 E19.93281
G1 X163.38 Y64.121 E19.94172
G1 X163.601 Y64.345 E19.95219
G1 X165.652 Y66.489 E20.05087
G1 X166.14 Y67.013 E20.07469
G1 X166.575 Y67.51 E20.09666
G1 X166.745 Y67.717 E20.10557
G1 X166.914 Y67.929 E20.11458
G1 X168.747 Y70.283 E20.21382
G1 X169.163 Y70.833 E20.23675
G1 X169.511 Y71.321 E20.25669
G1 X169.721 Y71.634 E20.26922
G1 X169.903 Y71.915 E20.28036
G1 X171.433 Y74.36 E20.37629
G1 X171.808 Y74.978 E20.40033
G1 X172.113 Y75.516 E20.4209
G1 X172.314 Y75.897 E20.43523
G1 X172.457 Y76.18 E20.44578
G1 X173.717 Y78.742 E20.54074
G1 X174.004 Y79.347 E20.56301
G1 X174.224 Y79.843 E20.58105
G1 X174.338 Y80.119 E20.59099
G1 X174.476 Y80.47 E20.60353
G1 X175.456 Y83.104 E20.69701
G1 X175.752 Y83.937 E20.72641
G1 X175.843 Y84.206 E20.73585
G1 X176.092 Y84.975 E20.76274
G1 X176.476 Y86.219 E20.80604
G1 X177.266 Y88.545 E20.88774
G1 X178.163 Y90.961 E20.97346
G1 X179.117 Y93.322 E21.05815
G1 X180.117 Y95.608 E21.14114
G1 X181.198 Y97.903 E21.22552
G1 X182.335 Y100.147 E21.30919
G1 X183.54 Y102.37 E21.39329
G1 X184.815 Y104.568 E21.47781
G1 X186.14 Y106.712 E21.56163
G1 X187.526 Y108.821 E21.64557
G1 X188.972 Y110.889 E21.7295
G1 X190.501 Y112.949 E21.81483
G1 X192.057 Y114.925 E21.89848
G1 X193.669 Y116.858 E21.98219
G1 X194.568 Y117.891 E22.02774
G1 X197.534 Y121.25 E22.17678
G1 X198.023 Y121.818 E22.20171
G1 X198.593 Y122.541 E22.23233
G1 X199.098 Y123.311 E22.26296
G1 X199.534 Y124.122 E22.29358
G1 X199.898 Y124.967 E22.32418
G1 X200.188 Y125.841 E22.35481
G1 X200.4 Y126.737 E22.38544
G1 X200.534 Y127.648 E22.41606
G1 X200.585 Y128.414 E22.4416
G1 X200.594 Y128.712 E22.45151
G1 X200.599 Y129.032 E22.46216
G1 X200.599 Y198.126 E24.76023
G1 X200.59 Y198.853 E24.78441
G1 X200.539 Y199.772 E24.81503
G1 X200.408 Y200.684 E24.84567
G1 X200.198 Y201.58 E24.87628
G1 X199.912 Y202.455 E24.9069
G1 X199.551 Y203.302 E24.93752
G1 X199.117 Y204.114 E24.96814
G1 X198.615 Y204.886 E24.99877
G1 X198.047 Y205.611 E25.0294
G1 X197.419 Y206.284 E25.06002
G1 X196.735 Y206.9 E25.09064
G1 X196 Y207.454 E25.12125
G1 X195.22 Y207.943 E25.15187
G1 X194.4 Y208.362 E25.1825
G1 X193.547 Y208.708 E25.21311
G1 X192.667 Y208.979 E25.24374
G1 X191.767 Y209.172 E25.27435
G1 X190.853 Y209.287 E25.30499
G1 X190.288 Y209.318 E25.32381
G1 X189.967 Y209.327 E25.33449
G1 X189.67 Y209.331 E25.34437
G1 X70.57 Y209.33 E29.30565
G1 X69.872 Y209.321 E29.32887
G1 X68.953 Y209.269 E29.35949
G1 X68.042 Y209.138 E29.3901
G1 X67.146 Y208.928 E29.42071
G1 X66.271 Y208.641 E29.45133
G1 X65.424 Y208.279 E29.48197
G1 X64.612 Y207.845 E29.51259
G1 X63.841 Y207.343 E29.54319
G1 X63.116 Y206.775 E29.57383
G1 X62.443 Y206.146 E29.60447
G1 X61.828 Y205.462 E29.63506
G1 X61.274 Y204.727 E29.66567
G1 X60.786 Y203.946 E29.6963
G1 X60.367 Y203.126 E29.72693
G1 X60.021 Y202.273 E29.75755
G1 X59.751 Y201.393 E29.78816
G1 X59.558 Y200.492 E29.81881
G1 X59.444 Y199.579 E29.84941
G1 X59.413 Y199.008 E29.86843
G1 X59.404 Y198.675 E29.87951
G1 X59.4 Y198.389 E29.88902
G1 X59.401 Y129.287 E32.18736
G1 X59.411 Y128.584 E32.21075
G1 X59.464 Y127.665 E32.24137
G1 X59.597 Y126.754 E32.27199
G1 X59.808 Y125.858 E32.3026
G1 X60.096 Y124.984 E32.33321
G1 X60.459 Y124.137 E32.36386
G1 X60.894 Y123.326 E32.39447
G1 X61.398 Y122.555 E32.42511
G1 X61.84 Y121.981 E32.4492
G1 X62.163 Y121.594 E32.46597
G1 X62.375 Y121.351 E32.47669
G1 X65.438 Y117.885 E32.63054
G1 X67.125 Y115.919 E32.7167
G1 X68.713 Y113.959 E32.8006
G1 X70.239 Y111.964 E32.88414
G1 X71.749 Y109.87 E32.97001
G1 X73.136 Y107.826 E33.05217
G1 X74.511 Y105.669 E33.13724
G1 X75.807 Y103.507 E33.22108
G1 X77.059 Y101.276 E33.30617
G1 X78.219 Y99.066 E33.38919
G1 X79.323 Y96.806 E33.47284
G1 X80.378 Y94.486 E33.55761
G1 X81.365 Y92.14 E33.64226
G1 X82.281 Y89.782 E33.7264
G1 X83.121 Y87.414 E33.80997
G1 X84.113 Y84.359 E33.9168
G1 X84.215 Y84.062 E33.92725
G1 X85.225 Y81.241 E34.02691
G1 X85.459 Y80.614 E34.04916
G1 X85.696 Y80.033 E34.07003
G1 X85.83 Y79.73 E34.08105
G1 X85.959 Y79.449 E34.09134
G1 X87.218 Y76.815 E34.18844
G1 X87.544 Y76.157 E34.21286
G1 X87.858 Y75.571 E34.23497
G1 X88.047 Y75.243 E34.24756
G1 X88.179 Y75.02 E34.25618
G1 X89.662 Y72.588 E34.35093
G1 X90.053 Y71.966 E34.37536
G1 X90.386 Y71.468 E34.39529
G1 X90.543 Y71.247 E34.4043
G1 X90.74 Y70.979 E34.41537
G1 X92.043 Y69.263 E34.48703
G0 F1080 X92.526 Y68.626
G0 F6000 X92.841 Y68.873
G1 F1200 X93.293 Y68.295 E34.51143
G1 X93.668 Y67.843 E34.53097
G1 X94.008 Y67.459 E34.54803
G1 X94.186 Y67.265 E34.55678
G1 X96.1 Y65.218 E34.64999
G1 X96.572 Y64.727 E34.67265
G1 X96.969 Y64.336 E34.69118
G1 X97.191 Y64.129 E34.70127
G1 X97.432 Y63.911 E34.71208
G1 X99.644 Y61.978 E34.80979
G1 X100.212 Y61.496 E34.83456
G1 X100.655 Y61.141 E34.85345
G1 X100.865 Y60.982 E34.86221
G1 X101.122 Y60.794 E34.8728
G1 X103.58 Y59.052 E34.973
G1 X104.135 Y58.671 E34.99539
G1 X104.618 Y58.359 E35.01452
G1 X104.862 Y58.211 E35.02401
G1 X105.127 Y58.056 E35.03422
G1 X107.72 Y56.589 E35.13331
G1 X108.332 Y56.254 E35.15651
G1 X108.846 Y55.991 E35.17572
G1 X109.096 Y55.872 E35.18492
G1 X109.385 Y55.74 E35.19549
G1 X112.064 Y54.567 E35.29276
G1 X112.769 Y54.269 E35.31822
G1 X113.385 Y54.032 E35.34017
G1 X113.718 Y53.916 E35.3519
G1 X113.95 Y53.838 E35.36004
G1 X116.704 Y52.953 E35.45625
G1 X117.378 Y52.747 E35.47969
G1 X117.957 Y52.589 E35.49966
G1 X118.312 Y52.503 E35.51181
G1 X118.596 Y52.438 E35.5215
G1 X121.382 Y51.848 E35.61621
G1 X122.093 Y51.707 E35.64032
G1 X122.678 Y51.608 E35.66006
G1 X122.974 Y51.567 E35.66999
G1 X123.274 Y51.53 E35.68005
G1 X126.211 Y51.213 E35.7783
G1 X126.911 Y51.147 E35.80169
G1 X127.496 Y51.109 E35.82118
G1 X127.969 Y51.093 E35.83692
G1 X128.257 Y51.089 E35.8465
G1 X131.036 Y51.073 E35.93894
G1 X131.79 Y51.08 E35.96402
G1 X132.343 Y51.101 E35.98242
G1 X132.846 Y51.135 E35.99919
G1 X133.123 Y51.16 E36.00844
G1 X135.908 Y51.429 E36.1015
G1 X136.613 Y51.507 E36.12509
G1 X137.189 Y51.587 E36.14443
G1 X137.626 Y51.663 E36.15919
G1 X137.948 Y51.725 E36.17009
G1 X140.681 Y52.274 E36.26281
G1 X141.377 Y52.424 E36.28649
G1 X141.956 Y52.567 E36.30633
G1 X142.273 Y52.655 E36.31727
G1 X142.548 Y52.735 E36.32679
G1 X145.398 Y53.614 E36.42599
G1 X146.036 Y53.822 E36.44831
G1 X146.549 Y54.005 E36.46643
G1 X146.782 Y54.095 E36.47473
G1 X147.089 Y54.219 E36.48575
G1 X149.84 Y55.387 E36.58515
G1 X150.489 Y55.673 E36.60874
G1 X150.999 Y55.915 E36.62751
